!!!!SEGMENT: pl-gd--ee-1638--003-010_marenzio-luca--madrigali-a-quatro-voci-nova-angeletta-soura-l-ale-accorta.krn
!!!cenid: 15xx:984
!!!COM: Marenzio, Luca
!!!COM-rismID: pe30003955
!!!CDT: ~1553-1599/08/22
!!!CNT: Italian
!!!GTL: Madrigali a quatro voci
!!!OTL: Nova angeletta soura l’ale accorta
!!!OMV: 010
!!!PDT: 1587
!!!AGN:
!!!YEC: Copyright 2022 Narodowy Instytut Fryderyka Chopina (https://polishscores.org)
!!!YEM: License CC-BY-4.0 (https://creativecommons.org/licenses/by/4.0)
!!!SMS-siglum: PL-GD
!!!SMS-shelfmark: Ee 1638
!!!SMS-shelfwork: 003-010 G
!!!SMS-variant:
!!!SMS-altvar:
!!!NIFC-rismSourceID: 1001202747
!!!NIFC-rismChildID: 990039322
!!!NIFC-islandoraID: pl-gd:57883
!!!URL-pdf-islandora: https://repozytorium.nifc.pl/islandora/object/pl-gd%3A57883/datastream/PDF/view
!!!URL-scan: https://polish.musicsources.pl/pl/lokalizacje/galeria/klocki-introligatorskie/655 @EN{Scan on Polish Music Sources Website} @PL{Skany w portalu Dziedzictwo Muzyki Polskiej w otwartym dostępie}
!!!IIIF: https://repozytorium.nifc.pl/islandora/object/pl-gd%3A57883/datastream/IIIF/view
!!!ONB-nifc: UWAGA: zbiór na stronach: Canto: s. 637-653, Alto: s. do 486-501, Tenore: s. do 334-349, Bassus: s. do 182-197. Uwaga: utwory podzielone wg tytułów w spisach treści dostępnych na końcu każdej księgi głosowej.
!!!AIN: 1 alto 1 bass 1 soprn 1 tenor
!!!key: G:mix
**kern	**text	**mod-text	**kern	**text	**mod-text	**kern	**text	**mod-text	**kern	**text	**mod-text
*part4	*	*	*part3	*	*	*part2	*	*	*part1	*	*
*staff4	*	*	*staff3	*	*	*staff2	*	*	*staff1	*	*
*I"BASSO	*	*	*I"TENORE	*	*	*I"ALTO	*	*	*I"CANTO	*	*
*mI"Basso	*	*	*mI"Tenore	*	*	*mI"Alto	*	*	*mI"Soprano	*	*
*I'B	*	*	*I'T	*	*	*I'A	*	*	*I'S	*	*
*Ibass	*	*	*Itenor	*	*	*Ialto	*	*	*Isoprn	*	*
*ICvox	*	*	*ICvox	*	*	*ICvox	*	*	*ICvox	*	*
*clefC4	*	*	*clefC3	*	*	*clefC2	*	*	*clefG2	*	*
*mclefF4	*	*	*mclefGv2	*	*	*mclefG2	*	*	*mclefG2	*	*
*k[]	*	*	*k[]	*	*	*k[]	*	*	*k[]	*	*
*G:mix	*	*	*G:mix	*	*	*G:mix	*	*	*G:mix	*	*
*M4/2	*	*	*M4/2	*	*	*M4/2	*	*	*M4/2	*	*
*met(C|)	*	*	*met(C|)	*	*	*met(C|)	*	*	*met(C|)	*	*
*mmet(c|)	*	*	*mmet(c|)	*	*	*mmet(c|)	*	*	*mmet(c|)	*	*
=1-	=1-	=1-	=1-	=1-	=1-	=1-	=1-	=1-	=1-	=1-	=1-
*xywh-pl-gd--ee1638-8o--0187:1211,562,3424,832	*	*	*xywh-pl-gd--ee1638-8o--0339:1100,506,3476,941	*	*	*xywh-pl-gd--ee1638-8o--0491:1140,498,3363,830	*	*	*xywh-pl-gd--ee1638-8o--0643:1129,503,3434,832	*	*
00r	.	.	00r	.	.	1r	.	.	1dd	NO-	No-
.	.	.	.	.	.	1g	NO-	No-	4.b/	-ua an-	-va_an-
.	.	.	.	.	.	.	.	.	8cc\	-ge-	-ge-
.	.	.	.	.	.	.	.	.	2dd\	-let-	-let-
=2-	=2-	=2-	=2-	=2-	=2-	=2-	=2-	=2-	=2-	=2-	=2-
.	.	.	.	.	.	4.e/	-ua an-	-va_an-	4g/	-ta	-ta
.	.	.	.	.	.	.	.	.	2cc\	ſou-	ſo-
.	.	.	.	.	.	8f\	-ge-	-ge-	.	.	.
.	.	.	.	.	.	2g\	-let-	-let-	.	.	.
.	.	.	.	.	.	.	.	.	4b/	-ra	-vra
.	.	.	.	.	.	4c/	-ta	-ta	2ee\	l'a-	l'a-
.	.	.	.	.	.	2cc\	ſoura	ſo-	.	.	.
.	.	.	.	.	.	.	.	.	2dd\	-le	-le
.	.	.	.	.	.	4b\	l'a-	-vra	.	.	.
=3-	=3-	=3-	=3-	=3-	=3-	=3-	=3-	=3-	=3-	=3-	=3-
0r	.	.	1r	.	.	2a\	-le ac-	l'a-	4r	.	.
.	.	.	.	.	.	.	.	.	2cc\	ſou-	ſo-
.	.	.	.	.	.	2g\	-cor-	-le_ac-	.	.	.
.	.	.	.	.	.	.	.	.	4b/	-ra	-vra
.	.	.	1d	NO-	No-	4f#X\	.	-cor-	4a/	l'a-	l'a-
.	.	.	.	.	.	2g\	.	.	4g/	-le ac-	-le_ac-
.	.	.	.	.	.	.	.	.	2a/	-cor-	-cor-
!	!	!	!	!	!	!LO:SIC:o=4f#X\	!	!	!	!	!
.	.	.	.	.	.	4f#	.	.	.	.	.
=4-	=4-	=4-	=4-	=4-	=4-	=4-	=4-	=4-	=4-	=4-	=4-
1G	NO-	No-	4.B/	-ua an-	-va_an-	2g\	-ta	-ta	2dd\	-ta	-ta
.	.	.	8c/	-ge-	-ge-	.	.	.	.	.	.
.	.	.	2d\	-let-	-let-	2r	.	.	2b/	No-	no-
4.E/	-ua an-	-va_an-	4G/	-ta	-ta	1g	No-	no-	4ee\	-ua an-	-va_an-
.	.	.	2c/	ſou-	ſo-	.	.	.	4ee\	-ge-	-ge-
8F/	-ge-	-ge-	.	.	.	.	.	.	.	.	.
!	!	!	!	!	!	!	!	!	!LO:SIC:v:t=custos gg	!	!
2G/	-let-	-let-	.	.	.	.	.	.	2dd\	-let-	-let-
.	.	.	4B/	-ra	-vra	.	.	.	.	.	.
!	!	!	!	!	!	!	!	!	!LO:LB:g=original	!	!
=5-	=5-	=5-	=5-	=5-	=5-	=5-	=5-	=5-	=5-	=5-	=5-
*	*	*	*	*	*	*	*	*	*xywh-pl-gd--ee1638-8o--0643:1190,1172,3321,678	*	*
4C/	-ta	-ta	2c/	l'a-	l'a-	4.e/	-ua an-	-va_an-	1gg	-ta	-ta
2c\	ſou-	ſo-	.	.	.	.	.	.	.	.	.
.	.	.	.	.	.	8fny\	-ge-	-ge-	.	.	.
!	!	!	!	!	!	!LO:SIC:v:t=custos c	!	!	!	!	!
.	.	.	2d\	-le ac-	-le_ac-	2g\	-let-	-let-	.	.	.
4B\	-ra	-vra	.	.	.	.	.	.	.	.	.
!	!	!	!	!	!	!LO:LB:g=original	!	!	!	!	!
*	*	*	*	*	*	*xywh-pl-gd--ee1638-8o--0491:1182,1141,3290,830	*	*	*	*	*
2A/	l'a-	l'a-	4.e\	-cor-	-cor-	4c/	-ta	-ta	4r	.	.
.	.	.	.	.	.	2cc\	ſou-	ſo-	2ee\	ſou-	ſo-
.	.	.	8f\	.	.	.	.	.	.	.	.
2G/	-le ac-	-le_ac-	2g\	.	.	.	.	.	.	.	.
.	.	.	.	.	.	4b\	-ra	-vra	4dd\	-ra	-vra
=6-	=6-	=6-	=6-	=6-	=6-	=6-	=6-	=6-	=6-	=6-	=6-
*	*	*	*xywh-pl-gd--ee1638-8o--0339:1131,1251,3465,713	*	*	*	*	*	*	*	*
1c	-cor-	-cor-	1e	-ta	-ta	2a\	l'a-	l'a-	2cc\	l'a-	l'a-
.	.	.	.	.	.	2g\	-le ac-	-le_ac-	2b/	-le ac-	-le_ac-
1d	-ta	-ta	2r	.	.	4f#X\	-cor-	-cor-	4a/	-cor-	-cor-
.	.	.	.	.	.	2g\	.	.	4g/	.	.
!	!	!	!LO:SIC:v:t=custos e	!	!	!	!	!	!	!	!
.	.	.	2d\	Sce-	sce-	.	.	.	2a/	.	.
!	!	!	!	!	!	!LO:SIC:o=4f#X\	!	!	!	!	!
.	.	.	.	.	.	4f#	.	.	.	.	.
!	!	!	!LO:LB:g=original	!	!	!	!	!	!	!	!
=7-	=7-	=7-	=7-	=7-	=7-	=7-	=7-	=7-	=7-	=7-	=7-
1r	.	.	4e\	-ſe	-ſe	1g	-ta	-ta	2g/	-ta	-ta
.	.	.	4f\	dal	dal	.	.	.	.	.	.
.	.	.	2.g\	ciel'	cie-	.	.	.	4r	.	.
.	.	.	.	.	.	.	.	.	4dd\	Sce-	sce-
2r	.	.	.	.	.	1r	.	.	4ee\	-ſe	-ſe
.	.	.	4f\	in	-lo_in	.	.	.	4ff\	dal	dal
!LO:SIC:v:t=custos A	!	!	!	!	!	!	!	!	!	!	!
2G/	Sce-	sce-	4e\	ſu	ſu	.	.	.	4gg\	ciel'	cie-
.	.	.	4d\	la	la	.	.	.	4ff\	in	lo_in
!LO:LB:g=original	!	!	!	!	!	!	!	!	!	!	!
=8-	=8-	=8-	=8-	=8-	=8-	=8-	=8-	=8-	=8-	=8-	=8-
*xywh-pl-gd--ee1638-8o--0187:1065,1291,3538,624	*	*	*	*	*	*	*	*	*	*	*
4A/	-ſe	-ſe	4c/	freſ-	freſ-	2r	.	.	4ee\	ſu	ſu
4B\	dal	dal	4d\	-ca	-ca	.	.	.	4dd\	la	la
2.c\	cie-	cie-	2e\	ri-	ri-	2g\	Sce-	sce-	2.cc\	freſ-	freſ-
.	.	.	1e	-ua	-va	4a\	-ſe	-ſe	.	.	.
4B\	-lo in	-lo_in	.	.	.	4b\	dal	dal	4dd\	-ca	-ca
4A/	ſu	ſu	.	.	.	2.cc\	ciel'	cie-	2ee\	ri-	ri-
4G/	la	la	.	.	.	.	.	.	.	.	.
=9-	=9-	=9-	=9-	=9-	=9-	=9-	=9-	=9-	=9-	=9-	=9-
2.F/	freſ-	freſ-	1r	.	.	.	.	.	2a/	-ua	-va
.	.	.	.	.	.	4b\	in	-lo_in	.	.	.
.	.	.	.	.	.	4a\	ſu	ſu	2cc\	Sce-	sce-
4E/	-ca	-ca	.	.	.	4g\	la	la	.	.	.
1D	ri-	ri-	2r	.	.	2fny\	freſ-	freſ-	4dd\	-ſe	-ſe
.	.	.	.	.	.	.	.	.	4ee\	dal	dal
.	.	.	2d\	Sce-	sce-	2a\	-ca	-ca	2ff\	cie-	cie-
=10-	=10-	=10-	=10-	=10-	=10-	=10-	=10-	=10-	=10-	=10-	=10-
!	!	!	!	!	!	!	!	!	!LO:SIC:v:t=custos dd	!	!
2C/	-ua	-va	4e\	-ſe	-ſe	2cc\	ri-	ri-	2gg\	-lo	-lo
.	.	.	4f\	dal	dal	.	.	.	.	.	.
!	!	!	!	!	!	!	!	!	!LO:LB:g=original	!	!
*	*	*	*	*	*	*	*	*	*xywh-pl-gd--ee1638-8o--0643:1129,1727,3475,668	*	*
2r	.	.	2.g\	cie-	cie-	2b\	-ua	-va	4r	.	.
.	.	.	.	.	.	.	.	.	4dd\	Sce-	sce-
1r	.	.	.	.	.	1r	.	.	4ee\	-ſe	-ſe
.	.	.	4f\	-lo in	-lo_in	.	.	.	4ff\	dal	dal
.	.	.	4e\	ſu	ſu	.	.	.	2.gg\	cie-	cie-
.	.	.	4d\	la	la	.	.	.	.	.	.
=11-	=11-	=11-	=11-	=11-	=11-	=11-	=11-	=11-	=11-	=11-	=11-
00r	.	.	2.c/	freſ-	freſ-	2g\	Sce-	sce-	.	.	.
.	.	.	.	.	.	.	.	.	4ff\	-lo in	-lo_in
.	.	.	.	.	.	4a\	-ſe	-ſe	2.ee\	ſu	ſu
!	!	!	!	!	!	!LO:SIC:v:t=custos cc	!	!	!	!	!
.	.	.	4B/	-ca	-ca	4b\	dal	dal	.	.	.
!	!	!	!	!	!	!LO:LB:g=original	!	!	!	!	!
*	*	*	*	*	*	*xywh-pl-gd--ee1638-8o--0491:1078,1650,3446,747	*	*	*	*	*
.	.	.	2A/	ri-	ri-	4cc\	cie-	cie-	.	.	.
.	.	.	.	.	.	4b\	-lo in-	-lo_in	4dd\	la	la
.	.	.	2A/	-ua	-va	4a\	-ſu-	ſu	4cc\	freſ-	freſ-
.	.	.	.	.	.	4g\	-la	la	4b/	-ca	-ca
=12-	=12-	=12-	=12-	=12-	=12-	=12-	=12-	=12-	=12-	=12-	=12-
.	.	.	0r	.	.	2.f\	fre-	fres-	4a/	ri-	ri-
.	.	.	.	.	.	.	.	.	4b/	.	.
.	.	.	.	.	.	.	.	.	2.cc\	.	.
.	.	.	.	.	.	4e/	.	.	.	.	.
.	.	.	.	.	.	1d	-ſca	-ca	.	.	.
.	.	.	.	.	.	.	.	.	8b/	.	.
.	.	.	.	.	.	.	.	.	8a/	.	.
.	.	.	.	.	.	.	.	.	2b/	.	.
=13-	=13-	=13-	=13-	=13-	=13-	=13-	=13-	=13-	=13-	=13-	=13-
!	!	!	!LO:SIC:v:t=custos g	!	!	!	!	!	!	!	!
1r	.	.	1e	La	là	1c	ri-	ri-	1cc	-ua	-va
*	*	*	*xywh-pl-gd--ee1638-8o--0339:1152,1810,3455,682	*	*	*	*	*	*	*	*
!	!	!	!LO:LB:g=original	!	!	!	!	!	!	!	!
2c\	La	là	4r	.	.	1g	-ua	-va	1ee	La	là
.	.	.	4g\	on-	on-	.	.	.	.	.	.
4r	.	.	4e\	-d'io	-de_io	.	.	.	.	.	.
4c\	on-	on-	4e\	paſ-	paſ-	.	.	.	.	.	.
=14-	=14-	=14-	=14-	=14-	=14-	=14-	=14-	=14-	=14-	=14-	=14-
4A/	-d'io	-de_io	2f\	-ſa-	-ſa-	1r	.	.	1r	.	.
4B\	paſ-	paſ-	.	.	.	.	.	.	.	.	.
4c\	-ſa-	-ſa-	2e\	-ua	-va	.	.	.	.	.	.
4A/	-ua	-va	.	.	.	.	.	.	.	.	.
1G	ſol	ſol	1g	ſol	ſol	2r	.	.	4r	.	.
.	.	.	.	.	.	.	.	.	4dd\	on-	on-
.	.	.	.	.	.	4r	.	.	4b/	-d'io	-de_io
.	.	.	.	.	.	4d/	La on-	là_on-	4b/	paſ-	paſ-
=15-	=15-	=15-	=15-	=15-	=15-	=15-	=15-	=15-	=15-	=15-	=15-
!LO:SIC:v:t=custos d	!	!	!	!	!	!	!	!	!	!	!
1r	.	.	1r	.	.	4e/	-d'io	-de_io	2cc\	-ſa-	-ſa-
.	.	.	.	.	.	4f\	paſ-	paſ-	.	.	.
!	!	!	!	!	!	!	!	!	!LO:SIC:v:t=custos dd	!	!
.	.	.	.	.	.	4g\	-ſa-	-ſa-	2b/	-ua	-va
.	.	.	.	.	.	4e/	-ua	-va	.	.	.
*xywh-pl-gd--ee1638-8o--0187:1169,1811,3424,624	*	*	*	*	*	*	*	*	*xywh-pl-gd--ee1638-8o--0643:1190,2220,3331,750	*	*
!LO:LB:g=original	!	!	!	!	!	!	!	!	!LO:LB:g=original	!	!
2r	.	.	2r	.	.	1d	ſol	ſol	2dd\	ſol	ſol
2d\	per	per	2f\	per	per	.	.	.	2a/	per	per
=16-	=16-	=16-	=16-	=16-	=16-	=16-	=16-	=16-	=16-	=16-	=16-
2c\	mio	mio	4e\	mio	mio	4r	.	.	2cc\	mio	mio
.	.	.	4e\	deſ-	de-	4g\	per	per	.	.	.
2G/	deſ-	de-	1d	-ti-	-sti-	4.g\	mio	mio	2b/	deſ-	de-
.	.	.	.	.	.	8f\	deſ-	de-	.	.	.
1A	-ti-	-sti-	.	.	.	1e	-ti-	-sti-	1a	-ti-	-sti-
.	.	.	2c#X/	.	.	.	.	.	.	.	.
=17-	=17-	=17-	=17-	=17-	=17-	=17-	=17-	=17-	=17-	=17-	=17-
2D/	-no	-no	2d\	-no	-no	2f#X\	-no	-no	2a/	-no	-no
1G	Poi	poi	1d	Poi	poi	1g	Poi	poi	1b	Poi	poi
!	!	!	!	!	!	!LO:SIC:v:t=custos g	!	!	!	!	!
2G/	che	che	2d\	che	che	2g\	che	che	2b/	che	che
!	!	!	!	!	!	!LO:LB:g=original	!	!	!	!	!
=18-	=18-	=18-	=18-	=18-	=18-	=18-	=18-	=18-	=18-	=18-	=18-
*	*	*	*	*	*	*xywh-pl-gd--ee1638-8o--0491:1151,2221,3373,747	*	*	*	*	*
1c	ſen-	ſen-	1e	ſen-	ſen-	1g	ſen-	ſen-	1cc	ſen-	ſen-
2F/	-za	-za	2f\	-za	-za	2a\	-za	-za	2cc\	-za	-za
2A/	com-	com-	2e\	cõ(m)-	com-	2a\	cõ(m)-	com-	2cc\	cõ(m)-	com-
=19-	=19-	=19-	=19-	=19-	=19-	=19-	=19-	=19-	=19-	=19-	=19-
1E	-pa-	-pa-	1e	-pa-	-pa-	1g#X	-pa-	-pa-	1b	-pa-	-pa-
2E/	-gna e	-gna_et	2e\	-gna e	-gna_et	2g#\	-gna e	-gna_et	2b/	-gna e	-gna_et
4A/	ſen-	ſen-	4e\	ſen-	ſen-	4a\	ſen-	ſen-	4cc\	ſen-	ſen-
!	!	!	!LO:SIC:v:t=custos g	!	!	!	!	!	!	!	!
4G/	-za	-za	4g\	-za	-za	4b\	-za	-za	4dd\	-za	-za
!	!	!	!LO:LB:g=original	!	!	!	!	!	!	!	!
=20-	=20-	=20-	=20-	=20-	=20-	=20-	=20-	=20-	=20-	=20-	=20-
*	*	*	*xywh-pl-gd--ee1638-8o--0339:976,2296,3569,693	*	*	*	*	*	*	*	*
2c\	ſcor-	ſcor-	1g	ſcor-	ſcor-	1cc	ſcor-	ſcor-	2ee\	ſcor-	ſcor-
4c\	-ta	-ta	.	.	.	.	.	.	4ee\	-ta	-ta
4c\	Mi	mi	.	.	.	.	.	.	4ee\	Mi	mi
2F/	vi-	vi-	2a\	-ta	-ta	2cc\	-ta	-ta	2ff\	vi-	vi-
!LO:SIC:v:t=custos c	!	!	!	!	!	!	!	!	!	!	!
2c\	-de	-de	4r	.	.	4r	.	.	2ee\	-de	-de
.	.	.	4e\	Mi	mi	4gny\	Mi	mi	.	.	.
!LO:LB:g=original	!	!	!	!	!	!	!	!	!	!	!
=21-	=21-	=21-	=21-	=21-	=21-	=21-	=21-	=21-	=21-	=21-	=21-
*xywh-pl-gd--ee1638-8o--0187:1200,2363,3424,624	*	*	*	*	*	*	*	*	*	*	*
2r	.	.	2f\	vi-	vi-	2a\	vi-	vi-	2r	.	.
4r	.	.	2e\	-de	-de	2g\	-de	-de	4r	.	.
4c\	Mi	mi	.	.	.	.	.	.	4ee\	Mi	mi
2F/	vi-	vi-	4r	.	.	4r	.	.	2ff\	vi-	vi-
.	.	.	4a\	vn	un	4cc\	vn	un	.	.	.
2c\	-de	-de	4a\	lac-	lac-	4cc\	lac-	lac-	2ee\	-de	-de
.	.	.	8g\	.	.	8b\	.	.	.	.	.
.	.	.	8f\	.	.	8a\	.	.	.	.	.
=22-	=22-	=22-	=22-	=22-	=22-	=22-	=22-	=22-	=22-	=22-	=22-
!	!	!	!	!	!	!	!	!	!LO:SIC:v:t=custos dd	!	!
1r	.	.	4g\	.	.	4b\	.	.	1r	.	.
.	.	.	4e\	-cio	-cio	4g\	-cio	-cio	.	.	.
.	.	.	4f\	che	che	4a\	che	che	.	.	.
.	.	.	4g\	di	di	4e/	di	di	.	.	.
*	*	*	*	*	*	*	*	*	*xywh-pl-gd--ee1638-8o--0643:974,2827,3557,709	*	*
!	!	!	!	!	!	!	!	!	!LO:LB:g=original	!	!
1d	Te-	te-	4a\	ſe-	ſe-	4f#X\	ſe-	ſe-	1dd	Te-	te-
.	.	.	4g\	-ta or-	-ta_or-	4g\	-ta or-	-ta_or-	.	.	.
!	!	!	!	!	!	!LO:SIC:v:t=custos b	!	!	!	!	!
.	.	.	2f#X\	-di-	-di-	2a\	-di-	-di-	.	.	.
!	!	!	!	!	!	!LO:LB:g=original	!	!	!	!	!
=23-	=23-	=23-	=23-	=23-	=23-	=23-	=23-	=23-	=23-	=23-	=23-
*	*	*	*	*	*	*xywh-pl-gd--ee1638-8o--0491:1203,2812,3373,726	*	*	*	*	*
2G/	-ſe	-ſe	1g	-ua	-ua	2b\	-ua	-ua	2dd\	-ſe	-ſe
4r	.	.	.	.	.	2r	.	.	4r	.	.
4c\	vn	un	.	.	.	.	.	.	4ee\	vn	un
4c\	lac-	lac-	1r	.	.	1g	Te-	te-	4ee\	lac-	lac-
8B\	.	.	.	.	.	.	.	.	8dd\	.	.
8A\	.	.	.	.	.	.	.	.	8cc\	.	.
4B\	.	.	.	.	.	.	.	.	4dd\	.	.
4G/	-cio	-cio	.	.	.	.	.	.	4b/	-cio	-cio
=24-	=24-	=24-	=24-	=24-	=24-	=24-	=24-	=24-	=24-	=24-	=24-
4A/	che	che	2r	.	.	2c/	-ſe	-ſe	4cc\	che	che
4B\	di	di	.	.	.	.	.	.	4dd\	di	di
4c\	ſe-	ſe-	2a\	vn	un	4r	.	.	4ee\	ſe-	ſe-
4d\	-ta or-	-ta_or-	.	.	.	4a\	vn	un	4ff\	-ta or-	-ta_or-
1e	-di-	-di-	4a\	lac-	lac-	4cc\	lac-	lac-	2ee\	-di-	-di-
.	.	.	8g\	.	.	8b\	.	.	.	.	.
.	.	.	8fny\	.	.	8a\	.	.	.	.	.
.	.	.	4g\	.	.	4b\	.	.	2ee\	-ua	-va
!	!	!	!LO:SIC:v:t=custos f	!	!	!	!	!	!	!	!
.	.	.	4e\	-cio	-cio	4g\	-cio	-cio	.	.	.
!	!	!	!LO:LB:g=original	!	!	!	!	!	!	!	!
=25-	=25-	=25-	=25-	=25-	=25-	=25-	=25-	=25-	=25-	=25-	=25-
*	*	*	*xywh-pl-gd--ee1638-8o--0339:1079,2855,3497,765	*	*	*	*	*	*	*	*
1d	-ua	-va	4f\	che	che	4a\	che	che	1r	.	.
.	.	.	4g\	di	di	4g\	di	di	.	.	.
.	.	.	4a\	ſe-	ſe-	4fny\	ſe-	ſe-	.	.	.
.	.	.	4f\	-ta or-	-ta_or-	4d/	-ta or-	-ta_or-	.	.	.
1c	Te-	te-	4g\	-di-	-di-	4e/	-di-	-di-	1cc	Te-	te-
.	.	.	2f\	.	.	4f\	.	.	.	.	.
.	.	.	.	.	.	2g\	.	.	.	.	.
.	.	.	4e\	.	.	.	.	.	.	.	.
=26-	=26-	=26-	=26-	=26-	=26-	=26-	=26-	=26-	=26-	=26-	=26-
2F/	-ſa	-ſa	2.f\	-va	-va	1a	-ua	-va	2cc\	-ſe	-ſe
!LO:SIC:v:t=custos G	!	!	!	!	!	!	!	!	!	!	!
2F/	fra	fra	.	.	.	.	.	.	2cc\	fra	fra
.	.	.	4e\	.	.	.	.	.	.	.	.
*xywh-pl-gd--ee1638-8o--0187:1294,2956,3289,572	*	*	*	*	*	*	*	*	*	*	*
!LO:LB:g=original	!	!	!	!	!	!	!	!	!	!	!
2G/	l'her-	l'her-	1d	.	.	2r	.	.	2b/	l'her-	l'her-
2G/	-ba on-	-ba_on-	.	.	.	2g\	Te-	te-	2b/	-ba on-	-ba_on-
=27-	=27-	=27-	=27-	=27-	=27-	=27-	=27-	=27-	=27-	=27-	=27-
4A/	-d'è	-de_è	0r	.	.	2c/	-ſe	-ſe	4cc\	-d'è	-de_è
!	!	!	!	!	!	!	!	!	!LO:SIC:v:t=custos a	!	!
4G/	ver-	ver-	.	.	.	.	.	.	4b/	ver-	ver-
*	*	*	*	*	*	*	*	*	*xywh-pl-gd--ee1638-8o--0643:1159,3382,3424,627	*	*
4F/	-d'el	-de_il	.	.	.	2c/	fra	fra	4a/	-d'el	-de_il
4E/	ca-	ca-	.	.	.	.	.	.	4g/	ca-	ca-
1D	-mi-	-mi-	.	.	.	2d/	l'her-	l'her-	1f	-mi-	-mi-
!	!	!	!	!	!	!LO:SIC:v:t=custos e	!	!	!	!	!
.	.	.	.	.	.	2d/	-ba on-	-ba_on-	.	.	.
!	!	!	!	!	!	!LO:LB:g=original	!	!	!	!	!
=28-	=28-	=28-	=28-	=28-	=28-	=28-	=28-	=28-	=28-	=28-	=28-
*	*	*	*	*	*	*xywh-pl-gd--ee1638-8o--0491:1047,3321,3498,726	*	*	*	*	*
1C	-no	-no	1g	Te-	te-	4e/	-d'è	-de_è	2e/	-no	-no
.	.	.	.	.	.	4d/	ver-	ver-	.	.	.
.	.	.	.	.	.	4c/	-d'el	-de_il	2ee\	on-	on-
.	.	.	.	.	.	4B/	ca-	ca-	.	.	.
1r	.	.	2cny/	-ſe	-ſe	8A/	-mi-	-mi-	4.ee\	-d'è	-de_è
.	.	.	.	.	.	8B/	.	.	.	.	.
.	.	.	.	.	.	8c/	.	.	.	.	.
.	.	.	.	.	.	8d/	.	.	8dd\	ver-	ver-
.	.	.	2c/	fra	fra	8e/	.	.	4cc\	-d'el	-de_il
.	.	.	.	.	.	8f\	.	.	.	.	.
.	.	.	.	.	.	8g\	.	.	4b/	ca	ca-
.	.	.	.	.	.	8e\	.	.	.	.	.
=29-	=29-	=29-	=29-	=29-	=29-	=29-	=29-	=29-	=29-	=29-	=29-
1r	.	.	2d\	l'her-	l'her-	4f#X\	.	.	4a/	-mi-	-mi-
.	.	.	.	.	.	2g\	.	.	4g/	.	.
.	.	.	2d\	-ba on-	-ba_on-	.	.	.	2a/	.	.
!	!	!	!	!	!	!LO:SIC:o=4f#X\	!	!	!	!	!
.	.	.	.	.	.	4f#	.	.	.	.	.
1C	Al-	al-	4e\	-d'è	-de_è	1g	-no	-no	2g/	-no	-no
.	.	.	4d\	ver-	ver-	.	.	.	.	.	.
.	.	.	4c/	-d'el	-de_il	.	.	.	1e/	Al-	al-
.	.	.	4B/	ca-	ca-	.	.	.	.	.	.
=30-	=30-	=30-	=30-	=30-	=30-	=30-	=30-	=30-	=30-	=30-	=30-
1.c	-hor	-hor	1A	-mi-	-mi-	1r	.	.	.	.	.
.	.	.	.	.	.	.	.	.	2ee\	-hor	-hor
.	.	.	1G	-no	-no	1g	Al-	al-	2r	.	.
2B\	fui	fui	.	.	.	.	.	.	2dd\	Al-	al-
=31-	=31-	=31-	=31-	=31-	=31-	=31-	=31-	=31-	=31-	=31-	=31-
*lig	*	*	*	*	*	*	*	*	*	*	*
1A	pre-	pre-	2r	.	.	1.cc	-hor	-hor	1.ee	-hor	-hor
!	!	!	!LO:SIC:v:t=custos g	!	!	!	!	!	!	!	!
.	.	.	2c/	Al-	al-	.	.	.	.	.	.
*	*	*	*xywh-pl-gd--ee1638-8o--0339:1172,3414,3362,724	*	*	*	*	*	*	*	*
!	!	!	!LO:LB:g=original	!	!	!	!	!	!	!	!
1G	.	.	1.g	-hor	-hor	.	.	.	.	.	.
.	.	.	.	.	.	2b\	fui	fui	2dd\	fui	fui
*Xlig	*	*	*	*	*	*	*	*	*	*	*
=32-	=32-	=32-	=32-	=32-	=32-	=32-	=32-	=32-	=32-	=32-	=32-
0A	-ſo	-ſo	.	.	.	0a	pre-	pre-	2cc#X\	pre-	pre-
.	.	.	2f\	fui	fui	.	.	.	2.dd\	.	.
.	.	.	1e	pre-	pre-	.	.	.	.	.	.
.	.	.	.	.	.	.	.	.	8cc#\	.	.
.	.	.	.	.	.	.	.	.	8b\	.	.
!	!	!	!	!	!	!	!	!	!LO:SIC:o=2cc#X\	!	!
.	.	.	.	.	.	.	.	.	2cc#	.	.
=33-	=33-	=33-	=33-	=33-	=33-	=33-	=33-	=33-	=33-	=33-	=33-
!	!	!	!	!	!	!	!	!	!LO:SIC:v:t=custos dd	!	!
2r	.	.	2d\	-ſo	-ſo	2a\	-ſo	-ſo	2dd\	-ſo	-ſo
!	!	!	!	!	!	!	!	!	!LO:LB:g=original	!	!
*	*	*	*	*	*	*	*	*	*xywh-pl-gd--ee1638-8o--0643:1190,3968,3352,606	*	*
2d\	&	et	4r	.	.	4r	.	.	4r	.	.
!	!	!	!	!	!	!LO:SIC:v:t=custos a	!	!	!	!	!
.	.	.	4f\	&	et	4a\	&	et	4dd\	&	et
!	!	!	!	!	!	!LO:LB:g=original	!	!	!	!	!
*	*	*	*	*	*	*xywh-pl-gd--ee1638-8o--0491:1171,3871,3342,726	*	*	*	*	*
4d\	non	non	4f\	non	non	4a\	nõ(n)	non	4.ff\	non	non
4d\	mi	mi	4a\	mi	mi	4dd\	mi	mi	.	.	.
.	.	.	.	.	.	.	.	.	8ff\	mi	mi
4e\	ſpiac-	ſpiac-	4g\	ſpiac-	ſpiac-	4b\	ſpiac-	ſpiac-	4ee\	ſpiac-	ſpiac-
!LO:SIC:v:t=custos d	!	!	!	!	!	!	!	!	!	!	!
4c\	-que	-que	4g\	-que	-que	4cc\	-que	-que	4ee\	-que	-que
!LO:LB:g=original	!	!	!	!	!	!	!	!	!	!	!
=34-	=34-	=34-	=34-	=34-	=34-	=34-	=34-	=34-	=34-	=34-	=34-
*xywh-pl-gd--ee1638-8o--0187:1159,3414,3465,645	*	*	*	*	*	*	*	*	*	*	*
2d\	poi	po-	2f#X\	poi	po-	2a\	poi	po-	2dd\	po-	po-
2G/	.	-i	2g\	Si	-i	2b\	Si	-i	2dd\	-i	-i
1c	Si	si	1e	dol-	si-	1g	dol-	si	2r	.	.
.	.	.	.	.	.	.	.	.	1ccny\	Si	si
=35-	=35-	=35-	=35-	=35-	=35-	=35-	=35-	=35-	=35-	=35-	=35-
1.F	dol-	dol-	2fny\	-ce	dol-	2.a\	.	dol-	.	.	.
.	.	.	1c	.	-ce	.	.	.	1a	dol-	dol-
.	.	.	.	.	.	4g\	.	.	.	.	.
.	.	.	.	.	.	2fny\	.	.	.	.	.
2E/	-ce	-ce	2.e\	lu-	lu-	2g\	-ce	-ce	2b/	-ce	-ce
=36-	=36-	=36-	=36-	=36-	=36-	=36-	=36-	=36-	=36-	=36-	=36-
1A	lu-	lu-	.	.	.	2e/	lu-	lu-	1cc	lu-	lu-
.	.	.	4d\	.	.	.	.	.	.	.	.
.	.	.	2c/	.	.	2f#X\	.	.	.	.	.
1G	-me vſ-	-me_u-	2d\	-me	-me	2g\	-me	-me	1b	-me	-me
.	.	.	4r	.	.	4r	.	.	.	.	.
.	.	.	4d\	vſ-	u-	4g\	vſ-	u-	.	.	.
=37-	=37-	=37-	=37-	=37-	=37-	=37-	=37-	=37-	=37-	=37-	=37-
2c\	-cia	-scia	4e\	-cia	-scia	4g\	-cia	-scia	0r	.	.
!	!	!	!LO:SIC:v:t=custos c	!	!	!	!	!	!	!	!
.	.	.	4d\	de-	de-	4fny\	de-	de-	.	.	.
*	*	*	*xywh-pl-gd--ee1638-8o--0339:1059,3983,3476,672	*	*	*	*	*	*	*	*
!	!	!	!LO:LB:g=original	!	!	!	!	!	!	!	!
2c\	de-	de-	4c/	-gl'oc-	-gli_oc-	4e/	-gl'oc-	-gli_oc-	.	.	.
.	.	.	4e\	-chi	-chi	4g\	-chi	-chi	.	.	.
2F/	-gl'oc-	-gli_oc-	4d\	ſuo-	ſuo-	4f\	ſuo-	ſuo-	.	.	.
.	.	.	4c/	.	.	4e/	.	.	.	.	.
2A/	-chi	-chi	2.c/	.	.	4d/	.	.	.	.	.
!	!	!	!	!	!	!LO:SIC:v:t=custos a	!	!	!	!	!
.	.	.	.	.	.	4c/	.	.	.	.	.
!	!	!	!	!	!	!LO:LB:g=original	!	!	!	!	!
=38-	=38-	=38-	=38-	=38-	=38-	=38-	=38-	=38-	=38-	=38-	=38-
*	*	*	*	*	*	*xywh-pl-gd--ee1638-8o--0491:1109,4442,3466,809	*	*	*	*	*
1G	ſuo-	ſuo-	.	.	.	1d	.	.	2r	.	.
.	.	.	8B/	.	.	.	.	.	.	.	.
.	.	.	8A/	.	.	.	.	.	.	.	.
.	.	.	2B/	.	.	.	.	.	2dd\	vſ-	u-
0C	-i	-i	1c	-i	-i	2.e/	-i	-i	2gg\	-cia	-scia
.	.	.	.	.	.	.	.	.	2gg\	de-	de-
.	.	.	.	.	.	4f\	.	.	.	.	.
=39-	=39-	=39-	=39-	=39-	=39-	=39-	=39-	=39-	=39-	=39-	=39-
.	.	.	1r	.	.	1g	.	.	2cc\	-gl'oc-	-gli_oc-
.	.	.	.	.	.	.	.	.	2ee\	-chi	-chi
1r	.	.	1d	vſ-	u-	2r	.	.	2dd\	ſuo-	ſuo-
.	.	.	.	.	.	2a\	vſ-	u-	4dd\	-i	-i
!	!	!	!	!	!	!	!	!	!LO:SIC:v:t=custos dd	!	!
.	.	.	.	.	.	.	.	.	4dd\	v-	u-
!	!	!	!	!	!	!	!	!	!LO:LB:g=original	!	!
=40-	=40-	=40-	=40-	=40-	=40-	=40-	=40-	=40-	=40-	=40-	=40-
*	*	*	*	*	*	*	*	*	*xywh-pl-gd--ee1638-8o--0643:1046,4421,3526,658	*	*
0r	.	.	2g\	-cia	-scia	4b\	-cia	-scia	4dd\	-ſcia	-ſcia
.	.	.	.	.	.	4a\	de-	de-	4cc\	de-	de-
.	.	.	2g\	de-	de-	4g\	-gl'oc-	-gli_oc-	4b/	-gl'oc-	-gli_oc-
.	.	.	.	.	.	4b\	-chi	-chi	4dd\	-chi	-chi
.	.	.	2c/	-gl'oc-	-gli_oc-	4a\	ſuo-	ſuo-	4cc\	ſuo-	ſuo-
.	.	.	.	.	.	4g\	.	.	4b/	.	.
.	.	.	2e\	-chi	-chi	2.g\	.	.	4a/	.	.
.	.	.	.	.	.	.	.	.	4g/	.	.
=41-	=41-	=41-	=41-	=41-	=41-	=41-	=41-	=41-	=41-	=41-	=41-
1D	vſ-	u-	2d\	ſuo-	ſuo-	.	.	.	2a/	.	.
!	!	!	!	!	!	!LO:SIC:o=8f\	!	!	!	!	!
.	.	.	.	.	.	8f#iL	.	.	.	.	.
.	.	.	.	.	.	8e\	.	.	.	.	.
.	.	.	4d\	-i	-i	2f#X\	.	.	4a/	-i	-i
.	.	.	4d\	vſ-	u-	.	.	.	4a/	vſ-	u-
2G/	-cia	-scia	4d\	-cia	-scia	2g\	-i	-i	4b/	-cia	-scia
.	.	.	4c/	de-	de-	.	.	.	4a/	de-	de-
2G/	de-	de-	4B/	-gl'oc-	-gli_oc-	2d/	de-	de-	4g/	-gl'oc-	-gli_oc-
!	!	!	!LO:SIC:v:t=custos c	!	!	!	!	!	!	!	!
.	.	.	4d\	-chi	-chi	.	.	.	4b/	-chi	-chi
!	!	!	!LO:LB:g=original	!	!	!	!	!	!	!	!
=42-	=42-	=42-	=42-	=42-	=42-	=42-	=42-	=42-	=42-	=42-	=42-
*	*	*	*xywh-pl-gd--ee1638-8o--0339:1100,4500,3538,641	*	*	*	*	*	*	*	*
2C/	-gl'oc-	-gli_oc-	4c/	ſuo-	ſuo-	2e/	-gl'oc-	-gli_oc-	4a/	ſuo-	ſuo-
.	.	.	4B/	.	.	.	.	.	4g/	.	.
2E/	-chi	-chi	4A/	.	.	2c/	-chi	-chi	2.g/	.	.
.	.	.	4G/	.	.	.	.	.	.	.	.
1D	ſuo-	ſuo-	1A	.	.	1d	ſuo-	ſuo-	.	.	.
!	!	!	!	!	!	!	!	!	!LO:SIC:o=8f/	!	!
.	.	.	.	.	.	.	.	.	8f#iL	.	.
.	.	.	.	.	.	.	.	.	8e/	.	.
.	.	.	.	.	.	.	.	.	2f#X/	.	.
=43-	=43-	=43-	=43-	=43-	=43-	=43-	=43-	=43-	=43-	=43-	=43-
0Gl	-i.	-i.	0Gl	-i.	-i.	0dl	-i.	-i.	0gl	-i.	-i.
==	==	==	==	==	==	==	==	==	==	==	==
*-	*-	*-	*-	*-	*-	*-	*-	*-	*-	*-	*-
!!!system-decoration: [(*)]
!!LO:MO:ori
!!!RDF**kern: l = terminal long
!!LO:MO:mod
!! !!!RDF**kern: i = editorial accidental
!!LO:MO:end
!!!filter-modern: shed -e "s/^custos:/Xcustos:/I" | autobeam | shed -e "s/TX(.*):t=P:/tx$1:t=P:/LG" | sic -sq | modori -m | autostem -r | tie -s | humtr -p | shed -e "s/-//B"
!!!ENC: Andrzej Gręziak
!!!END: 2022-06-27
!!!EED: Jan Barakat
!!!EEV: 2022-07-11
!!!ENC-modern: Andrzej Kubiczek
!!!END-modern: 2022-10-20
!!!ENC-iiif: Zuzanna Daniec
!!!END-iiif: 2022-09-05
